packages/icons/src/svg/question-circle.svg

<svg xmlns="http://www.w3.org/2000/svg" viewBox="0 0 16 16">
    <path d="M7.8436 3.6245C6.8856 3.6245 6.0656 4.1035 5.4726 4.8095L6.6586 5.8945C6.9866 5.5915 7.2636 5.3645 7.6926 5.3645 8.0716 5.3645 8.3996 5.5405 8.3996 5.9955 8.3996 6.8025 6.6086 7.5075 6.8606 9.1475L8.7516 9.1475C8.6256 7.7605 10.4676 7.3565 10.4676 5.8435 10.4676 4.2545 9.3066 3.6245 7.8436 3.6245M7.7933 9.7529C7.0623 9.7529 6.5323 10.3329 6.5323 11.0649 6.5323 11.7959 7.0623 12.3759 7.7933 12.3759 8.5253 12.3759 9.0543 11.7959 9.0543 11.0649 9.0543 10.3329 8.5253 9.7529 7.7933 9.7529"/>
    <path d="M7.9998,14.6245 C4.3478,14.6245 1.3748,11.6525 1.3748,7.9995 C1.3748,4.3475 4.3478,1.3755 7.9998,1.3755 C11.6528,1.3755 14.6248,4.3475 14.6248,7.9995 C14.6248,11.6525 11.6528,14.6245 7.9998,14.6245 M7.9998,-0.0005 C3.5818,-0.0005 -0.0002,3.5815 -0.0002,7.9995 C-0.0002,12.4185 3.5818,15.9995 7.9998,15.9995 C12.4178,15.9995 15.9998,12.4185 15.9998,7.9995 C15.9998,3.5815 12.4178,-0.0005 7.9998,-0.0005"/>
</svg>

<svg xmlns="http://www.w3.org/2000/svg" viewBox="0 0 16 16">
	<path d="M7.844 3.624c-.958 0-1.778.48-2.371 1.185l1.186 1.085c.328-.303.605-.53 1.034-.53.379 0 .707.176.707.631 0 .808-1.791 1.513-1.54 3.153h1.892c-.126-1.387 1.716-1.792 1.716-3.304 0-1.59-1.161-2.22-2.624-2.22m-.05 6.129c-.732 0-1.262.58-1.262 1.312 0 .73.53 1.31 1.261 1.31.732 0 1.261-.58 1.261-1.31 0-.732-.529-1.312-1.26-1.312"/>
	<path d="M8 14.624A6.633 6.633 0 0 1 1.375 8 6.633 6.633 0 0 1 8 1.377 6.632 6.632 0 0 1 14.625 8 6.633 6.633 0 0 1 8 14.625M8 0a8 8 0 1 0 0 16A8 8 0 0 0 8 0"/>
</svg>
